svgs/light/air-conditioner.svg

<svg xmlns="http://www.w3.org/2000/svg" viewBox="0 0 576 512"><!-- Font Awesome Pro 6.0.0-alpha2 by @fontawesome - https://fontawesome.com License - https://fontawesome.com/license (Commercial License) --><path d="M224 416C224 451.297 195.297 480 160 480C133.531 480 112 458.469 112 432S133.531 384 160 384C168.836 384 176 376.836 176 368S168.836 352 160 352C115.891 352 80 387.891 80 432S115.891 512 160 512C212.938 512 256 468.938 256 416V288H224V416ZM416 320C407.164 320 400 327.164 400 336S407.164 352 416 352C442.469 352 464 373.531 464 400S442.469 448 416 448C380.703 448 352 419.297 352 384V288H320V384C320 436.938 363.062 480 416 480C460.109 480 496 444.109 496 400S460.109 320 416 320ZM512 0H64C28.801 0 0 28.801 0 64V192C0 227.199 28.801 256 64 256H512C547.199 256 576 227.199 576 192V64C576 28.801 547.199 0 512 0ZM544 192C544 209.674 529.674 224 512 224H64C46.326 224 32 209.674 32 192V64C32 46.326 46.326 32 64 32H512C529.674 32 544 46.326 544 64V192ZM464 128H112C103.199 128 96 135.199 96 144S103.199 160 112 160H464C472.801 160 480 152.801 480 144S472.801 128 464 128Z"/></svg>

<svg xmlns="http://www.w3.org/2000/svg" viewBox="0 0 576 512"><!--! Font Awesome Pro 6.0.0-alpha3 by @fontawesome - https://fontawesome.com License - https://fontawesome.com/license (Commercial License) --><path d="M224 416c0 35.3-28.7 64-64 64c-26.47 0-48-21.53-48-48S133.5 384 160 384c8.836 0 16-7.164 16-16S168.8 352 160 352c-44.11 0-80 35.89-80 79.1S115.9 512 160 512c52.94 0 96-43.06 96-96V288H224V416zM416 320c-8.836 0-16 7.164-16 15.1S407.2 352 416 352c26.47 0 48 21.53 48 48S442.5 448 416 448c-35.3 0-64-28.7-64-64V288h-32v96c0 52.94 43.06 96 96 96c44.11 0 80-35.89 80-80S460.1 320 416 320zM512 .0002H64c-35.2 0-64 28.8-64 64V192c0 35.2 28.8 64 64 64h448c35.2 0 64-28.8 64-64V64C576 28.8 547.2 .0002 512 .0002zM544 192c0 17.67-14.33 32-32 32H64C46.33 224 32 209.7 32 192V64c0-17.67 14.33-32 32-32h448c17.67 0 32 14.33 32 32V192zM464 128h-352C103.2 128 96 135.2 96 144S103.2 160 112 160h352C472.8 160 480 152.8 480 144S472.8 128 464 128z"/></svg>
